!!!COM: Palestrina, Giovanni Perluigi da
!!!OPR: Missa Quando lieta sperai
!!!OMD: Kyrie
!!!OTL: First Section
**kern	**kern	**kern	**kern	**kern
*Ibass	*Ibarit	*Itenor	*Icalto	*Icant
!Bassus	!Baritone	!Tenor	!Altus	!Cantus
*clefF4	*clefF4	*clefGv2	*clefG2	*clefG2
*k[]	*k[]	*k[]	*k[]	*k[]
*A:aeo	*A:aeo	*A:aeo	*A:aeo	*A:aeo
*M4/2	*M4/2	*M4/2	*M4/2	*M4/2
=1	=1	=1	=1	=1
0r	0r	1e	0r	1e
.	.	2d	.	2f
.	.	2c	.	2e
=2	=2	=2	=2	=2
0r	1r	2d	1r	2f
.	.	2e	.	2g
.	1e	1A	1e	[1a
=3	=3	=3	=3	=3
0r	2d	2r	2f	2a]
.	2c	2A	2e	2a
.	2d	2d	2f	2a
.	2B	2d	2g	2b
=4	=4	=4	=4	=4
0r	2A	2.e	2a	2cc
.	2E	.	2g	2.b
.	.	4d	.	.
.	2F	2c	1f	.
.	.	.	.	4a
.	2D	2d	.	[2a
=5	=5	=5	=5	=5
1E	2r	1B	1e	2a]
.	2E	.	.	2g#
2D	2F	1r	2r	1a
2C	2E	.	2e	.
=6	=6	=6	=6	=6
2D	2F	1r	2d	1r
2E	2G	.	2B	.
1AA	[1A	1e	1c#	2r
.	.	.	.	2e
=7	=7	=7	=7	=7
2D	2A]	2d	2d	2f
2A	2A	2c#	2e	2e
2D	2A	2d	2.d	2f
2G	2B	2B	.	2g
.	.	.	4e	.
=8	=8	=8	=8	=8
2F	2c	2A	4f	2a
.	.	.	4c	.
2G	2.B	2E	2.e	4g
.	.	.	.	4f
1A	.	2.c	.	1e
.	4A	.	4d	.
.	[2A	.	2c	.
.	.	4d	.	.
=9	=9	=9	=9	=9
1E	2A]	1.e	1B	2r
.	2G#	.	.	2b
2r	1A	.	1A	2cc
2A	.	2c	.	2a
=10	=10	=10	=10	=10
2G	0r	1d	2r	4b
.	.	.	.	4cc
2F	.	.	2a	1dd
2G	.	1e	2g	.
2A	.	.	2e	2cc#
=11	=11	=11	=11	=11
1D	2r	1d	2.f	1dd
.	2d	.	.	.
.	.	.	4d	.
1r	2c	1r	4e	1g
.	.	.	4f	.
.	2B	.	[2g	.
=12	=12	=12	=12	=12
1r	2c	1r	2g]	1a
.	2d	.	2f#	.
2r	4G	2r	1g	1g
.	4A	.	.	.
2E	4B	2e	.	.
.	4c	.	.	.
=13	=13	=13	=13	=13
2F	2A	2d	0r	0r
2E	2G	2c	.	.
2F	2A	2d	.	.
2G	[2d	2B	.	.
=14	=14	=14	=14	=14
1A	2d]	1A	2r	2r
.	2c#	.	2e	2e
2r	2d	1r	2d	2f
2A	2A	.	2c#	2e
=15	=15	=15	=15	=15
2D	1r	1r	2d	2f
2E	.	.	2B	2g
1F	2r	1c	4A	2.a
.	.	.	4B	.
.	2A	.	4c	.
.	.	.	4d	4b
=16	=16	=16	=16	=16
1C	2G	2c	1e	1cc
.	1c	2c	.	.
1G	.	1d	2r	1r
.	4B	.	2g	.
.	4A	.	.	.
=17	=17	=17	=17	=17
1E	2.B	1e	2g	0r
.	.	.	2g	.
.	4c	.	.	.
1F	4A	2c	1a	.
.	4B	.	.	.
.	[2c	2f	.	.
=18	=18	=18	=18	=18
1G	2c]	2e	1.g	1r
.	2B	2d	.	.
2E	2G	2.c	.	2r
[2F	[2A	.	[2c	2cc
.	.	4B	.	.
=19	=19	=19	=19	=19
2F]	2A]	2A	4c]	2cc
.	.	.	4d	.
2E	2G	1c	2e	2cc
1D	1F	.	1f	1dd
.	.	2B	.	.
=20	=20	=20	=20	=20
0C	2r	2.c	2.e	0ee
.	2c	.	.	.
.	.	4d	4f	.
.	2c	4e	2g	.
.	.	4f	.	.
.	2c	[2g	2cc	.
=21	=21	=21	=21	=21
1r	1d	2g]	2b	1dd
.	.	2f	2.a	.
2r	[1e	2.e	.	2b
.	.	.	4g	.
2C	.	.	2g	[2cc
.	.	4f	.	.
=22	=22	=22	=22	=22
2C	1e]	2g	2e	2cc]
2C	.	2e	1g	4b
.	.	.	.	4a
1D	1r	2.d	.	2b
.	.	.	2f	2a
.	.	4c	.	.
=23	=23	=23	=23	=23
2E	2r	1B	2.e	4g
.	.	.	.	4e
2.E	2G	.	.	4g
.	.	.	4f	4a
.	2G	[1e	1g	2b
4D	.	.	.	.
4C	2G	.	.	[2cc
4BB	.	.	.	.
=24	=24	=24	=24	=24
1AA	1A	2e]	4c	4cc]
.	.	.	4d	4b
.	.	2c	4e	2a
.	.	.	4f	.
[1E	2B	2B	[1e	2g#
.	2c	2A	.	[2a
=25	=25	=25	=25	=25
1E]	1B	2B	1e]	2a]
.	.	2e	.	2g#
[1AA	[1A	[1c#	[1e	[1a
=26	=26	=26	=26	=26
1AA]	1A]	1c#]	1e]	1a]
*-	*-	*-	*-	*-
!!!CDT: 1525/^1526/-1594/2/2
!!!OCY: Italia
!!!AGN: Mass (Parody)
!!!AST: renaissance, vocal
!!!ASW: Madrigal 1548 (anon (Rore, Morales))
!!!PWK: Masses, Book 11
!!!RNB: Cadence finals: G,E
!!!YOR: Le Opere Complete, v. 28, p. 73
!!!YOO: Rome, Italy: Fratelli Scalera
!!!END: 1992//
!!!EED: John Miller
!!!YEC: Copyright 2000, John Miller
!!!YEN: United States of America
!!!YEM: Rights to all derivative electronic formats reserved.
!!!YEM: Refer to licensing agreement for further details.
!!!YEM: This file must be accompanied by the licensing agreement.
!!!YEM: A copy of the licensing agreement may be found at http://www.music-cog.ohio-state.edu/HumdrumDatabases/Palestrina/license.txt
!!!EMD: converted to Humdrum by Bret Aarden
